24x24/apps/appimagekit-clipgrab.svg

<svg xmlns="http://www.w3.org/2000/svg" width="24" height="24" version="1">
 <g transform="translate(1.0009 1)">
  <rect fill="#2095f2" width="20" height="20" x="-21" y="-21" rx="10" ry="10" transform="matrix(0,-1,-1,0,0,0)"/>
  <path fill="#fff" opacity=".2" d="m11 1c-2.258 0-4.3295 0.7499-6 2.0029 0.0015 5.5385 4.461 9.997 10 9.997 2.258 0 4.3295-0.75 6-2.003-0.002-5.5385-4.461-9.997-10-9.997z"/>
  <path fill="#fff" opacity=".2" d="m11 1c-5.54 0-10 4.46-10 10 0 0.084-0.002 0.1665 0 0.25 0.1322-5.423 4.544-9.75 10-9.75s9.868 4.327 10 9.75c0.002-0.0835 0-0.166 0-0.25 0-5.54-4.46-10-10-10z"/>
  <path opacity=".2" d="m1.0059 11.25c-0.00205 0.0835-0.00585 0.166-0.00585 0.25 0 5.54 4.46 10 10 10s10-4.46 10-10c0-0.084-0.004-0.1665-0.006-0.25-0.132 5.423-4.538 9.75-9.994 9.75s-9.862-4.327-9.994-9.75z"/>
  <path opacity=".2" d="m10 5.5c-0.277 0-1.0173 0.2235-1 0.5v7.5h-2l4 5 4-5h-2v-7.5c0-0.277-0.723-0.5-1-0.5z"/>
  <path fill="#fff" d="m10 5c-0.277 0-1.0173 0.2235-1 0.5v7.5h-2l4 5 4-5h-2v-7.5c0-0.277-0.723-0.5-1-0.5z"/>
 </g>
</svg>

<svg xmlns="http://www.w3.org/2000/svg" width="24" height="24" version="1"><g transform="translate(1 1)"><rect fill="#2095f2" width="20" height="20" x="-21" y="-21" rx="10" ry="10" transform="matrix(0 -1 -1 0 0 0)"/><path fill="#fff" opacity=".2" d="M11 1c-2.258 0-4.33.75-6 2.003A9.978 9.978 0 0 0 15 13c2.258 0 4.33-.75 6-2.003A9.978 9.978 0 0 0 11 1z"/><path fill="#fff" opacity=".2" d="M11 1C5.46 1 1 5.46 1 11c0 .084-.002.167 0 .25.132-5.423 4.544-9.75 10-9.75s9.868 4.327 10 9.75c.002-.084 0-.166 0-.25 0-5.54-4.46-10-10-10z"/><path opacity=".2" d="M1.006 11.25c-.002.084-.006.166-.006.25 0 5.54 4.46 10 10 10s10-4.46 10-10c0-.084-.004-.167-.006-.25C20.862 16.673 16.456 21 11 21s-9.862-4.327-9.994-9.75z"/><path opacity=".2" d="M10 5.5c-.277 0-1.017.224-1 .5v7.5H7l4 5 4-5h-2V6c0-.277-.723-.5-1-.5z"/><path fill="#fff" d="M10 5c-.277 0-1.017.224-1 .5V13H7l4 5 4-5h-2V5.5c0-.277-.723-.5-1-.5z"/></g></svg>
